resources/icons/hidden-vote.svg

<svg xmlns="http://www.w3.org/2000/svg" width="39" height="30" viewBox="0 0 39 30" fill="none"><g clip-path="url(#clip0_26152_10262)"><g filter="url(#filter0_d_26152_10262)"><rect x="0.25" width="38" height="30" rx="4" fill="#F4F4FF"/><rect x="0.75" y="0.5" width="37" height="29" rx="3.5" stroke="#C2C2FF"/></g><path d="m1.25 31 38-30M1.25 37l38-30M1.25 43l38-30M1.25 49l38-30M.25 60l38-30M-.75 27l38-30M-2.75 23l38-30M-4.75 19l38-30M-6.75 14l38-30" stroke="#8A96FD"/><g filter="url(#filter1_d_26152_10262)"><rect x="0.75" y="0.5" width="37" height="29" rx="3.5" stroke="#C2C2FF" shape-rendering="crispEdges"/></g></g><defs><filter id="filter0_d_26152_10262" x="-3.75" y="0" width="46" height="38" filterUnits="userSpaceOnUse" color-interpolation-filters="sRGB"><feFlood flood-opacity="0" result="BackgroundImageFix"/><feColorMatrix in="SourceAlpha" type="matrix" values="0 0 0 0 0 0 0 0 0 0 0 0 0 0 0 0 0 0 127 0" result="hardAlpha"/><feOffset dy="4"/><feGaussianBlur stdDeviation="2"/><feComposite in2="hardAlpha" operator="out"/><feColorMatrix type="matrix" values="0 0 0 0 0 0 0 0 0 0 0 0 0 0 0 0 0 0 0.25 0"/><feBlend mode="normal" in2="BackgroundImageFix" result="effect1_dropShadow_26152_10262"/><feBlend mode="normal" in="SourceGraphic" in2="effect1_dropShadow_26152_10262" result="shape"/></filter><filter id="filter1_d_26152_10262" x="-3.75" y="0" width="46" height="38" filterUnits="userSpaceOnUse" color-interpolation-filters="sRGB"><feFlood flood-opacity="0" result="BackgroundImageFix"/><feColorMatrix in="SourceAlpha" type="matrix" values="0 0 0 0 0 0 0 0 0 0 0 0 0 0 0 0 0 0 127 0" result="hardAlpha"/><feOffset dy="4"/><feGaussianBlur stdDeviation="2"/><feComposite in2="hardAlpha" operator="out"/><feColorMatrix type="matrix" values="0 0 0 0 0 0 0 0 0 0 0 0 0 0 0 0 0 0 0.25 0"/><feBlend mode="normal" in2="BackgroundImageFix" result="effect1_dropShadow_26152_10262"/><feBlend mode="normal" in="SourceGraphic" in2="effect1_dropShadow_26152_10262" result="shape"/></filter><clipPath id="clip0_26152_10262"><rect x="0.25" width="38" height="30" rx="4" fill="white"/></clipPath></defs></svg>

<svg xmlns="http://www.w3.org/2000/svg" width="39" height="30" viewBox="0 0 39 30" fill="none"><g clip-path="url(#clip0_26152_10262)"><g filter="url(#filter0_d_26152_10262)"><rect x="0.25" width="38" height="30" rx="4" fill="#F4F4FF"/><rect x="0.75" y="0.5" width="37" height="29" rx="3.5" stroke="#C2C2FF"/></g><path d="m1.25 31 38-30m-38 36 38-30m-38 36 38-30m-38 36 38-30m-39 41 38-30m-39-3 38-30m-40 26 38-30m-40 26 38-30m-40 25 38-30" stroke="#8A96FD"/><g filter="url(#filter1_d_26152_10262)"><rect x="0.75" y="0.5" width="37" height="29" rx="3.5" stroke="#C2C2FF" shape-rendering="crispEdges"/></g></g><defs><filter id="filter0_d_26152_10262" x="-3.75" y="0" width="46" height="38" filterUnits="userSpaceOnUse" color-interpolation-filters="sRGB"><feFlood flood-opacity="0" result="BackgroundImageFix"/><feColorMatrix in="SourceAlpha" type="matrix" values="0 0 0 0 0 0 0 0 0 0 0 0 0 0 0 0 0 0 127 0" result="hardAlpha"/><feOffset dy="4"/><feGaussianBlur stdDeviation="2"/><feComposite in2="hardAlpha" operator="out"/><feColorMatrix type="matrix" values="0 0 0 0 0 0 0 0 0 0 0 0 0 0 0 0 0 0 0.25 0"/><feBlend mode="normal" in2="BackgroundImageFix" result="effect1_dropShadow_26152_10262"/><feBlend mode="normal" in="SourceGraphic" in2="effect1_dropShadow_26152_10262" result="shape"/></filter><filter id="filter1_d_26152_10262" x="-3.75" y="0" width="46" height="38" filterUnits="userSpaceOnUse" color-interpolation-filters="sRGB"><feFlood flood-opacity="0" result="BackgroundImageFix"/><feColorMatrix in="SourceAlpha" type="matrix" values="0 0 0 0 0 0 0 0 0 0 0 0 0 0 0 0 0 0 127 0" result="hardAlpha"/><feOffset dy="4"/><feGaussianBlur stdDeviation="2"/><feComposite in2="hardAlpha" operator="out"/><feColorMatrix type="matrix" values="0 0 0 0 0 0 0 0 0 0 0 0 0 0 0 0 0 0 0.25 0"/><feBlend mode="normal" in2="BackgroundImageFix" result="effect1_dropShadow_26152_10262"/><feBlend mode="normal" in="SourceGraphic" in2="effect1_dropShadow_26152_10262" result="shape"/></filter><clipPath id="clip0_26152_10262"><rect x="0.25" width="38" height="30" rx="4" fill="white"/></clipPath></defs></svg>
